!!!!SEGMENT: Ric3003-De_mon_triste_et_desplaisir.krn
!!!id: Ric3003
!!!AGN: Chanson
!!!SCT: Elzinga (1999)
!!!voices: 4
!!!COM: Jean Richafort
!!!OTL: De mon triste et desplaisir
**kern	**kern	**kern	**kern
*part4	*part3	*part2	*part1
*staff4	*staff3	*staff2	*staff1
*I"Bassus	*I"Tenor	*I"Altus	*I"Superius
*I'B	*I'T	*I'A	*I'S
*clefF4	*clefGv2	*clefGv2	*clefG2
*k[b-]	*k[b-]	*k[b-]	*k[b-]
*F:	*F:	*F:	*F:
*M2/1	*M2/1	*M2/1	*M2/1
*met(C|)	*met(C|)	*met(C|)	*met(C|)
=1	=1	=1	=1
2.G	0r	0r	[0g
4A	.	.	.
2B-y	.	.	.
2c	.	.	.
=2	=2	=2	=2
2.B-y	0r	2.G	0g]
4c	.	4A	.
2d	.	2B-y	.
[2e-i	.	2c	.
=3	=3	=3	=3
4e-]	2.G	2.B-y	0g
4d	.	.	.
1d	.	.	.
.	4A	4c	.
.	2B-y	2d	.
2c	2c	[2e-i	.
=4	=4	=4	=4
2d	2.B-y	4e-]	1.b-y
.	.	4d	.
1G	.	1d	.
.	4c	.	.
.	2d	.	.
2G	[2e-i	2B-y	2b-y
=5	=5	=5	=5
2.F	4e-]	2c	1a
.	4d	.	.
.	1d	2d	.
8EL	.	.	.
8DJ	.	.	.
1E	.	1G	1g
.	2c#i	.	.
=6	=6	=6	=6
0D	2.d	1A	1f
.	8cL	.	.
.	8B-yJ	.	.
.	1A	2r	1r
.	.	2d	.
=7	=7	=7	=7
2r	2r	2d	1b-y
2G	2B-y	2d	.
2G	2B-y	4d	2b-y
.	.	4c	.
2G	2B-y	4d	2b-y
.	.	4e	.
=8	=8	=8	=8
2.F	1.c	1f	2.a
8EL	.	.	4g
8DJ	.	.	.
2C	.	2e	2a
[2G	2B-y	2d	[2b-y
=9	=9	=9	=9
4G]	1G	2.B-y	4b-]
4F	.	.	4a
2E	.	.	1g
.	.	4c	.
1D	1A	[1d	.
.	.	.	2f#i
=10	=10	=10	=10
2r	0G	1d]	0g
1G	.	.	.
.	.	1r	.
2G	.	.	.
=11	=11	=11	=11
2.B-y	0r	2.G	0r
4c	.	4A	.
2d	.	2B-y	.
[2e-i	.	2c	.
=12	=12	=12	=12
4e-]	2.G	2.B-y	1g
4d	.	.	.
1d	.	.	.
.	4A	4c	.
.	2B-y	2d	2g
2c	2c	[2e-i	2g
=13	=13	=13	=13
2d	2.B-y	4e-]	1.b-y
.	.	4d	.
1G	.	1d	.
.	4c	.	.
.	2d	.	.
2G	[2e-i	2B-y	2b-y
=14	=14	=14	=14
2.F	4e-]	2c	1a
.	4d	.	.
.	1d	2d	.
8EL	.	.	.
8DJ	.	.	.
1E	.	1A	1g
.	2c#i	.	.
=15	=15	=15	=15
0D	2.d	1A	1f
.	8cL	.	.
.	8B-yJ	.	.
.	1A	2r	1r
.	.	2d	.
=16	=16	=16	=16
2r	2r	2d	1b-y
2G	2B-y	2d	.
2G	2B-y	4d	2b-y
.	.	4c	.
2G	2B-y	4d	2b-y
.	.	4e	.
=17	=17	=17	=17
2.F	1c	1f	2.a
8EL	.	.	4g
8DJ	.	.	.
2C	2c	2e	2a
[2G	2B-y	2d	[2b-y
=18	=18	=18	=18
4G]	1G	2.B-y	4b-]
4F	.	.	4a
2E	.	.	1g
.	.	4c	.
1D	1A	[1d	.
.	.	.	2f#i
=19	=19	=19	=19
2r	2r	1d]	1g
2G	2G	.	.
2F	2A	2r	2r
2G	2B-y	2d	2b-y
=20	=20	=20	=20
1C	2.c	1e	1g
.	4B-y	.	.
2r	2A	1f	1a
2F	[2d	.	.
=21	=21	=21	=21
2.G	4d]	1d	1b-y
.	4c	.	.
.	4B-y	.	.
4A	4A	.	.
1B-y	2G	2r	2r
.	2B-y	2d	2b-y
=22	=22	=22	=22
1r	2c	2e	1g
.	2e	2c	.
2r	2.d	1f	1a
2F	.	.	.
.	4c	.	.
=23	=23	=23	=23
2.G	4B-y	2d	1.b-y
.	4A	.	.
.	1d	2.g	.
4A	.	.	.
1B-y	.	.	.
.	.	4f	.
.	4c	[2f	4a
.	4B-y	.	4g
=24	=24	=24	=24
0F	0A	2f]	1.cc
.	.	4e	.
.	.	4d	.
.	.	1c	.
.	.	.	2b-y
=25	=25	=25	=25
1.F	2r	2r	2.a
.	2A	2c	.
.	.	.	4g
.	2F	2c	2a
2E	2G	2c	2g
=26	=26	=26	=26
1D	2A	2d	1f
.	2.d	2.f	.
1G	.	.	[1b-y
.	4c	4e	.
.	2e	4e	.
.	.	4d	.
=27	=27	=27	=27
1F	2d	[0f	2b-]
.	4c	.	4a
.	4B-y	.	4g
1F	1c	.	1a
=28	=28	=28	=28
2r	0B-y	1f]	1b-y
2B-y	.	.	.
2.G	.	2r	2r
.	.	2d	2b-y
4A	.	.	.
=29	=29	=29	=29
2B-y	2r	2d	1g
2c	2e	2c	.
1F	2d	1A	1a
.	2c	.	.
=30	=30	=30	=30
2r	4d	2r	1b-y
.	4c	.	.
2B-y	4B-y	2d	.
.	4A	.	.
2.G	1B-y	[1d	2r
.	.	.	2b-y
4A	.	.	.
=31	=31	=31	=31
2B-y	2r	2d]	1g
2c	2e	4c	.
.	.	4B-y	.
1F	2d	2A	1a
.	2c	2F	.
=32	=32	=32	=32
2r	2B-y	2G	2b-y
2F	4A	2A	2.cc
.	4G	.	.
2.F	4A	4F	.
.	4B-y	4G	4b-y
.	4c	4A	4a
4E	4d	4B-y	4g
=33	=33	=33	=33
2F	2c	2A	2a
2D	2F	2d	2.b-y
1E	1G	2B-y	.
.	.	.	4a
.	.	2c	[2g
=34	=34	=34	=34
1D	1A	0d	4g]
.	.	.	4f#i
.	.	.	4f#i
.	.	.	4e
2r	[1G	.	1g
2B-y	.	.	.
=35	=35	=35	=35
2.G	1G]	2r	2r
.	.	2d	2b-y
4A	.	.	.
2B-y	2r	2d	1g
2c	2e	2c	.
=36	=36	=36	=36
1F	2d	1A	1a
.	2c	.	.
2r	4d	2r	1b-y
.	4c	.	.
2B-y	4B-y	2d	.
.	4A	.	.
=37	=37	=37	=37
2.G	1B-y	1.d	2r
.	.	.	2b-y
4A	.	.	.
2B-y	2r	.	1g
2c	2e	4c	.
.	.	4B-y	.
=38	=38	=38	=38
1F	2d	2A	1a
.	2c	2F	.
2r	2B-y	2G	2b-y
2F	4A	2A	[2cc
.	4G	.	.
=39	=39	=39	=39
2.F	4A	4F	4cc]
.	4B-y	4G	4b-y
.	4c	4A	4a
4E	4d	4B-y	4g
2F	2c	2A	2a
2D	2F	2d	[2b-y
=40	=40	=40	=40
1E	1G	2B-y	4b-]
.	.	.	4a
.	.	2c	1g
1D	1A	1d	.
.	.	.	2f#i
=41	=41	=41	=41
00Gl	00Gl	00dl	00gl
==	==	==	==
*-	*-	*-	*-
!!!system-decoration: [*]
!!!RDF**kern: i = editorial accidental
!!!RDF**kern: l = terminal long
!!!ENC: Benjamin Ory
!!!END: 2021/1/7
!!!EED: Benjamin Ory
!!!EEV: 2021/05/02
!!!YEC: Copyright 2021 Benjamin Ory, All Rights Reserved
!!!ONB: Translated from MusicXML on 2021/05/02
